libs/ui/packages/crypto-icons/src/svg/PIRL.svg

<svg width="24" height="24" viewBox="0 0 24 24" fill="none">
<path d="M8.69515 12.0788C8.75965 12.2723 8.8549 12.4538 8.9779 12.6173L7.10815 10.7288C6.91332 10.5323 6.804 10.2668 6.804 9.99004C6.804 9.71332 6.91332 9.4478 7.10815 9.25129L9.4669 6.89104C9.51565 6.85504 9.56215 6.81604 9.60715 6.77554L9.6754 6.71554L11.5857 4.80379C11.6817 4.70732 11.7959 4.6308 11.9217 4.57867C12.0475 4.52653 12.1823 4.49979 12.3185 4.5C12.4546 4.50021 12.5894 4.52736 12.715 4.57988C12.8406 4.63241 12.9546 4.70927 13.0504 4.80604L19.3077 11.1083C19.4503 11.3109 19.5171 11.5573 19.4964 11.8042C19.4756 12.0512 19.3688 12.283 19.1944 12.459C19.0223 12.6326 18.7958 12.7419 18.5528 12.7685C18.3098 12.7951 18.065 12.7375 17.8594 12.6053L12.3319 7.02529L12.3259 7.01779L12.3079 6.99829L9.35065 9.95629L9.30565 9.99379C9.30394 9.99583 9.30219 9.99783 9.3004 9.99979L12.2224 12.945C12.3511 13.0751 12.4435 13.2364 12.4905 13.4132C12.5376 13.5899 12.5376 13.7759 12.4906 13.9527C12.4436 14.1294 12.3512 14.2908 12.2226 14.4209C12.094 14.5509 11.9336 14.6451 11.7574 14.694C11.5812 14.7415 11.3956 14.7415 11.2195 14.6939C11.0434 14.6463 10.883 14.553 10.7547 14.4233L9.25765 12.9158C9.2359 12.8963 9.21415 12.8708 9.18715 12.8438L9.11815 12.7748C9.06798 12.7183 9.02115 12.659 8.9779 12.597L9.01165 12.6368L8.98915 12.6075C8.86352 12.4481 8.76425 12.2696 8.69515 12.0788ZM14.8047 14.0085L11.8789 11.0618C11.6841 10.8653 11.5748 10.5998 11.5748 10.323C11.5748 10.0463 11.6841 9.7808 11.8789 9.58429C11.9752 9.48771 12.0896 9.41113 12.2156 9.35896C12.3416 9.3068 12.4767 9.28009 12.613 9.28037C12.7494 9.28065 12.8844 9.30791 13.0101 9.36059C13.1359 9.41327 13.25 9.49031 13.3459 9.58729L14.8437 11.0948C14.8647 11.1135 14.8864 11.1398 14.9142 11.166L14.9824 11.235C15.0214 11.2785 15.0574 11.325 15.0904 11.3723L15.1069 11.3925C15.0858 11.3625 15.0643 11.3327 15.0424 11.3033L16.9999 13.2735C17.195 13.4702 17.3045 13.736 17.3045 14.013C17.3045 14.2901 17.195 14.5559 16.9999 14.7525L14.6397 17.1135C14.5902 17.1488 14.5427 17.1866 14.4972 17.2268L12.5292 19.1948C12.4332 19.2915 12.3191 19.3683 12.1933 19.4207C12.0675 19.4731 11.9326 19.5001 11.7964 19.5001C11.6602 19.5001 11.5253 19.4731 11.3995 19.4207C11.2737 19.3683 11.1596 19.2915 11.0637 19.1948L4.7059 12.7845C4.55099 12.5744 4.47945 12.3142 4.50507 12.0544C4.53069 11.7946 4.65167 11.5534 4.84465 11.3775C5.03702 11.2026 5.28808 11.1062 5.54811 11.1076C5.80814 11.109 6.05817 11.208 6.24865 11.385L11.7867 16.9763L11.8054 16.9988L14.7567 14.0483L14.8002 14.013C14.8016 14.0115 14.8031 14.01 14.8047 14.0085Z" fill="#96B73D"/>
</svg>

<svg width="24" height="24" viewBox="0 0 24 24" fill="none"><path fill="#96b73d" d="M8.695 12.079q.098.291.283.538l-1.87-1.888a1.05 1.05 0 0 1 0-1.478l2.359-2.36a2 2 0 0 0 .14-.115l.068-.06 1.91-1.912a1.03 1.03 0 0 1 1.465.002l6.258 6.302a1.056 1.056 0 0 1-.755 1.66 1.07 1.07 0 0 1-.694-.163l-5.527-5.58-.006-.007-.018-.02L9.35 9.956l-.045.038L9.3 10l2.922 2.945a1.05 1.05 0 0 1-.465 1.749 1.03 1.03 0 0 1-1.002-.27l-1.497-1.508q-.032-.03-.07-.072l-.07-.07a2 2 0 0 1-.14-.177l.034.04-.023-.03a1.9 1.9 0 0 1-.294-.528m6.11 1.93-2.926-2.947a1.05 1.05 0 0 1 .337-1.703 1.03 1.03 0 0 1 1.13.228l1.498 1.508c.02.018.042.045.07.071l.068.069q.06.065.108.137l.017.02-.065-.089L17 13.273a1.05 1.05 0 0 1 0 1.48l-2.36 2.36q-.074.054-.143.114l-1.968 1.968a1.033 1.033 0 0 1-1.465 0l-6.358-6.41a1.056 1.056 0 0 1 .139-1.408 1.04 1.04 0 0 1 1.404.008l5.538 5.591.018.023 2.952-2.95.043-.036z"/></svg>
